X:1108
T:Irish Air.
M:6/8
L:1/8
Q:3/8=104
I: :: ::
Z:Jack Campin * www.campin.me.uk * 2009
K:G
B3 {B}AGA |G>AG  GBd  |   e>fg    dcB | cAA {B}AGA|
B3 {B}A>GA|G>AG  GBd  |   e>fg    dgB |TA3     G3:|
B>cd  ddd |d>e=f e^fg |   d>cB {c}B>AG| F>GA   ABc|
B>cd  ddd |d>e=f e>^fg|{e}d>cB {c}B>AG| AFA   Hc3 |
B3 {B}AGA |G>AG  GBd  |   e>fg    dcB | cAA {B}AGA|
B3    A>GA|G>AG  GBd  |   e>fg    dgB | A3     G3|]
<end>
<start>
